X: 745
T: Ferahfezâ Peşrev
C: Dede Efendi
O: Turkey
F: http://compmusic.upf.edu/node/140
N: ferahfeza--pesrev--devrikebir----dede_efendi
N: makam= ferahfeza
N: form= pesrev
N: usul= devrikebir = 28/4
M: 28/4
L: 1/16
K: C _B   
Q: 1/4=102
%%MIDI tuningsystem comma53
d8 a4 g2a2  | g4 f8 e4  | g3f e2g2 f8  | \
w:  1. HANE  |   |   | 
z4 a2b2 a4 g4  | f4 e4 d4 e4  | 
w:   |   | 
f12 gfg2  | f12 z4  | c2d2 c2_1/4B2 c4 d4  | \
w:   |   |   | 
c12 g4  | f8 e8  | z4 g4 f4 e4  | d8 ^c8  | 
w:   |   |   |   | 
d8 z4 g2a2  | g3f e2g2 f8  | c8 g4 f2g2  | \
w:   |   |  TESLİM  | 
f12 e4  | z4 e2f2 e2f2 d4  | 
w:   |   | 
z4 d2d2 d4 c4  | c2d2 c2d2 c4 B4  | z4 _e4 d4 c4  | \
w:   |   |   | 
B2c2 B2A2 A8  | G8 c4 B2c2  | 
w:   |   | 
B4 A2B2 A4 G2B2  | A4 G4 F4 E4  | D8 F4 E4  | \
w:   |   |   | 
D8 ^C8  | D12 EDE2  | D12 z4  | 
w:   |   |   | 
d8 a8  | a4 b4 a4 g4  | g4 a4 g4 f4  | f4 g4 f4 e4  | \
w:  2. HANE  |   |   |   | 
d4 f4 e2d2 ^c4  | d12 ede2  | 
w:   |   | 
d12 z4  | d8 e4 f4  | g4 _7/8a4 g4 f4  | \
w:   |   |   | 
g3f e2f2 g8  | g8 f4 g4  | f8 g8  | g4 _7/8a2_1/4b2 a4 g4  | 
w:   |   |   |   | 
g3f e2g2 f8  | d8 a8  | a4 b4 a4 g4  | g4 a4 g4 f4  | \
w:   |   |   |   | 
f4 g4 f4 e4  | d4 f4 e2d2 ^c4  | 
w:   |   | 
d12 ede2  | d12 z4  | G8 d8  | ^c12 z4  | B6A2 G8  | \
w:   |   |   |   |   | 
z4 g4 f4 e4  | d4 ^c4 =B4 c4  | 
w:   |   | 
d12 g2a2  | g3f e2g2 f8  | c8 g4 f2g2  | \
w:   |   |  TESLİM  | 
f12 e4  | z4 e2f2 e2f2 d4  | z4 d2d2 d4 c4  | 
w:   |   |   | 
c2d2 c2d2 c4 B4  | z4 _e4 d4 c4  | B2c2 B2A2 A8  | \
w:   |   |   | 
G8 c4 B2c2  | B4 A2B2 A4 G2B2  | 
w:   |   | 
A4 G4 F4 E4  | D8 F4 E4  | D8 ^C8  | D12 EDE2  | \
w:   |   |   |   | 
D12 z4  | a8 a8  | a12 =b4  | a8 ^g8  | 
w:   |  3. HANE  |   |   | 
z4 =b4 a8  | a4 ^g4 ^1/4f4 g4  | a12 =bab2  | \
w:   |   |   | 
a12 z4  | a8 _1/4b4 c'4  | _1/4b4 c'8 _7/8d'4  | \
w:   |   |   | 
c'6_1/4b2 a8  | 
w:   | 
z4 c'4 _1/4b4 a4  | a4 ^g4 ^1/4f4 g4  | \
w:   |   | 
a4 =b4 a4 ^g4  | ^1/4f2^g2 f2e2 d2^c2 d4  | \
w:   |   | 
a8 a8  | 
w:   | 
a12 =b4  | a8 ^g8  | z4 =b4 a8  | a4 ^g4 ^1/4f4 g4  | \
w:   |   |   |   | 
a12 =bab2  | a12 z4  | a12 g2a2  | g12 b4  | 
w:   |   |   |   | 
a4 g4 f4 e4  | d8 f4 e4  | d8 ^c8  | d12 g2a2  | \
w:   |   |   |   | 
g3f e2g2 f8  | c8 g4 f2g2  | 
w:   |  TESLİM  | 
f12 e4  | z4 e2f2 e2f2 d4  | z4 d2d2 d4 c4  | \
w:   |   |   | 
c2d2 c2d2 c4 B4  | z4 _e4 d4 c4  | 
w:   |   | 
B2c2 B2A2 A8  | G8 c4 B2c2  | B4 A2B2 A4 G2B2  | \
w:   |   |   | 
A4 G4 F4 E4  | D8 F4 E4  | 
w:   |   | 
D8 ^C8  | D12 EDE2  | D12 z4  | c8 d8  | d12 f4  | \
w:   |   |   |  4. HANE  |   | 
e4 d4 c8  | z4 g4 f4 e4  | f4 d4 e4 c4  | 
w:   |   |   | 
d4 e2f2 e4 d4  | c6_1/4B2 A8  | A8 a4 g4  | \
w:   |   |   | 
g4 f4 f4 e4  | e6d2 c4 d4  | c8 _1/4B4 c4  | 
w:   |   |   | 
_1/4B6c2 A8  | G4 A8 g2a2  | g3f e2g2 f8  | \
w:   |   |   | 
c8 g4 f2g2  | f12 e4  | z4 e2f2 e2f2 d4  | 
w:  TESLİM  |   |   | 
z4 d2d2 d4 c4  | c2d2 c2d2 c4 B4  | z4 _e4 d4 c4  | \
w:   |   |   | 
B2c2 B2A2 A8  | G8 c4 B2c2  | 
w:   |   | 
B4 A2B2 A4 G2B2  | A4 G4 F4 E4  | D8 F4 E4  | \
w:   |   |   | 
D8 ^C8  | D12 EDE2  | D12 z4  | 
w:   |   |   | 
|


